storage/app/icons/phosphoricons/thin/ambulance-thin.svg

<svg xmlns="http://www.w3.org/2000/svg" fill="currentColor" viewBox="0 0 256 256"><path d="M84 120a4 4 0 0 1 4-4h20V96a4 4 0 0 1 8 0v20h20a4 4 0 0 1 0 8h-20v20a4 4 0 0 1-8 0v-20H88a4 4 0 0 1-4-4m168 0v64a12 12 0 0 1-12 12h-20.29a28 28 0 0 1-55.42 0h-56.58a28 28 0 0 1-55.42 0H32a12 12 0 0 1-12-12V72a12 12 0 0 1 12-12h152a4 4 0 0 1 4 4v12h38.58a12 12 0 0 1 11.15 7.54l14 35A4 4 0 0 1 252 120m-64-36v32h54.09L230.3 86.51a4 4 0 0 0-3.72-2.51ZM32 188h20.29a28 28 0 0 1 55.42 0h56.58A28.05 28.05 0 0 1 180 166.71V68H32a4 4 0 0 0-4 4v112a4 4 0 0 0 4 4m68 4a20 20 0 1 0-20 20 20 20 0 0 0 20-20m112 0a20 20 0 1 0-20 20 20 20 0 0 0 20-20m32-8v-60h-56v40.29A28 28 0 0 1 219.71 188H240a4 4 0 0 0 4-4"/></svg>

<svg xmlns="http://www.w3.org/2000/svg" viewBox="0 0 256 256" fill="currentColor"><path d="M84,120a4,4,0,0,1,4-4h20V96a4,4,0,0,1,8,0v20h20a4,4,0,0,1,0,8H116v20a4,4,0,0,1-8,0V124H88A4,4,0,0,1,84,120Zm168,0v64a12,12,0,0,1-12,12H219.71a28,28,0,0,1-55.42,0H107.71a28,28,0,0,1-55.42,0H32a12,12,0,0,1-12-12V72A12,12,0,0,1,32,60H184a4,4,0,0,1,4,4V76h38.58a12,12,0,0,1,11.15,7.54l14,35A4,4,0,0,1,252,120ZM188,84v32h54.09L230.3,86.51A4,4,0,0,0,226.58,84ZM32,188H52.29a28,28,0,0,1,55.42,0h56.58A28.05,28.05,0,0,1,180,166.71V68H32a4,4,0,0,0-4,4V184A4,4,0,0,0,32,188Zm68,4a20,20,0,1,0-20,20A20,20,0,0,0,100,192Zm112,0a20,20,0,1,0-20,20A20,20,0,0,0,212,192Zm32-8V124H188v40.29A28,28,0,0,1,219.71,188H240A4,4,0,0,0,244,184Z"/></svg>
